X:49
M:2/4
L:1/8
Q:1/4=140
K:G
|:A>DD>A|B>GG>B|A>DD>A|B2A2|B>cd>B|e>fg>c|B2A2|G4:|
K:Bb
|:B>cd>e|d>g^f>g|d>cB>A|B2 {A}G2|B>cd>e|d>g^f>g|B2 AG|d4:|
|:D>=E^F>G|^F>GA>B|c>BA>G|G>^F=E>D|B>cd>B|d>g^f>g|B2A2|G4:|

